resources/haticons/SVG/no_encryption.svg

<!-- Generated by IcoMoon.io -->
<svg version="1.1" xmlns="http://www.w3.org/2000/svg" width="24" height="24" viewBox="0 0 24 24">
<title>no_encryption</title>
<path d="M8.906 6v1.219l-1.828-1.828q0.234-1.875 1.617-3.141t3.305-1.266q2.063 0 3.539 1.477t1.477 3.539v2.016h0.984q0.797 0 1.406 0.586t0.609 1.383v8.344l-10.359-10.313h5.438v-2.016q0-1.266-0.914-2.18t-2.18-0.914-2.18 0.914-0.914 2.18zM21 21.797l-1.219 1.219-1.125-1.125q-0.375 0.094-0.656 0.094h-12q-0.797 0-1.406-0.586t-0.609-1.383v-10.031q0-1.172 1.078-1.734l-2.063-2.016 1.219-1.219z"></path>
</svg>

<svg xmlns="http://www.w3.org/2000/svg" width="24" height="24"><path d="M8.906 6v1.219L7.078 5.391q.234-1.875 1.617-3.141T12 .984q2.063 0 3.539 1.477T17.016 6v2.016H18q.797 0 1.406.586t.609 1.383v8.344L9.656 8.016h5.438V6q0-1.266-.914-2.18T12 2.906t-2.18.914T8.906 6zM21 21.797l-1.219 1.219-1.125-1.125q-.375.094-.656.094H6q-.797 0-1.406-.586t-.609-1.383V9.985q0-1.172 1.078-1.734L3 6.235l1.219-1.219z"/></svg>
